dist/svg/u1F3AC.svg

<?xml version="1.0" encoding="UTF-8"?><svg id="a" xmlns="http://www.w3.org/2000/svg" viewBox="0 0 40 40"><g><path d="M4.735,20.361h31.82v14.547c0,1.154-.937,2.092-2.092,2.092H6.827c-1.154,0-2.092-.937-2.092-2.092v-14.547h0Z" fill="#333"/><g><path d="M4.735,16.82h30.561c.695,0,1.259,.564,1.259,1.259v3.557c0,.695-.564,1.259-1.259,1.259H5.994c-.695,0-1.259-.564-1.259-1.259v-4.815h0Z" fill="#3d3d3d"/><polygon points="17.078 16.82 11.299 22.894 15.769 22.894 21.548 16.82 17.078 16.82" fill="#d0d6de"/><polygon points="8.76 16.82 4.735 21.049 4.735 22.894 7.451 22.894 13.23 16.82 8.76 16.82" fill="#d0d6de"/><polygon points="25.501 16.82 19.722 22.894 24.192 22.894 29.972 16.82 25.501 16.82" fill="#d0d6de"/><path d="M35.296,16.82h-1.371l-5.779,6.074h4.47l3.939-4.14v-.676c0-.695-.564-1.259-1.259-1.259Z" fill="#d0d6de"/></g><g><path d="M32.682,3.043L4.379,10.627c-.671,.18-1.07,.87-.89,1.542l1.246,4.651,29.52-7.91c.671-.18,1.07-.87,.89-1.542l-.92-3.435c-.18-.671-.87-1.07-1.542-.89Z" fill="#3d3d3d"/><polygon points="16.657 13.625 9.503 9.254 13.821 8.097 20.975 12.468 16.657 13.625" fill="#d0d6de"/><path d="M8.622,15.778l-4.982-3.044-.152-.566c-.18-.671,.219-1.362,.89-1.541l1.407-.377,7.154,4.371-4.318,1.157Z" fill="#d0d6de"/><polygon points="24.794 11.445 17.639 7.074 21.957 5.917 29.112 10.288 24.794 11.445" fill="#d0d6de"/><polygon points="35.47 8.584 32.93 9.265 25.776 4.894 30.094 3.737 34.97 6.716 35.47 8.584" fill="#d0d6de"/></g></g><rect x="0" width="40" height="40" fill="none"/></svg>

<svg id="Layer_1" data-name="Layer 1" xmlns="http://www.w3.org/2000/svg" viewBox="0 0 40 40"><defs><style>.cls-1{fill:#333;}.cls-2{fill:#3d3d3d;}.cls-3{fill:#d0d6de;}.cls-4{fill:none;}</style></defs><path class="cls-1" d="M4.735,20.361h31.82a0,0,0,0,1,0,0V34.908A2.092,2.092,0,0,1,34.463,37H6.827a2.092,2.092,0,0,1-2.092-2.092V20.361A0,0,0,0,1,4.735,20.361Z"/><path class="cls-2" d="M4.735,16.82H35.3a1.259,1.259,0,0,1,1.259,1.259v3.557A1.259,1.259,0,0,1,35.3,22.894H5.994a1.259,1.259,0,0,1-1.259-1.259V16.82A0,0,0,0,1,4.735,16.82Z"/><polygon class="cls-3" points="17.078 16.82 11.299 22.894 15.769 22.894 21.548 16.82 17.078 16.82"/><polygon class="cls-3" points="8.76 16.82 4.735 21.049 4.735 22.894 7.451 22.894 13.23 16.82 8.76 16.82"/><polygon class="cls-3" points="25.501 16.82 19.722 22.894 24.192 22.894 29.972 16.82 25.501 16.82"/><path class="cls-3" d="M35.3,16.82H33.925l-5.78,6.074h4.471l3.939-4.14v-.676A1.259,1.259,0,0,0,35.3,16.82Z"/><path class="cls-2" d="M32.682,3.043l-28.3,7.584a1.258,1.258,0,0,0-.89,1.542L4.735,16.82,34.254,8.91a1.258,1.258,0,0,0,.89-1.541l-.92-3.436A1.259,1.259,0,0,0,32.682,3.043Z"/><polygon class="cls-3" points="16.657 13.625 9.503 9.254 13.821 8.097 20.975 12.468 16.657 13.625"/><path class="cls-3" d="M8.622,15.778,3.64,12.734l-.151-.565a1.258,1.258,0,0,1,.89-1.542l1.407-.377,7.154,4.371Z"/><polygon class="cls-3" points="24.794 11.445 17.639 7.074 21.957 5.917 29.112 10.288 24.794 11.445"/><polygon class="cls-3" points="35.47 8.584 32.93 9.265 25.776 4.894 30.094 3.737 34.97 6.716 35.47 8.584"/><rect class="cls-4" width="40" height="40"/></svg>
